assets/home/Chat.svg

<svg xmlns="http://www.w3.org/2000/svg" width="120" height="120" fill="none" xmlns:v="https://vecta.io/nano"><g fill-rule="evenodd"><path d="M106.328 98.112a4.99 4.99 0 0 0 .094 6.494l6.24 7.084c1.301 1.474 1.618 3.574.81 5.366a5 5 0 0 1-4.558 2.944H60C26.885 120 0 93.115 0 60S26.885 0 60 0s60 26.885 60 60c0 14.467-5.131 27.745-13.672 38.112zM97.956 110H60c-27.596 0-50-22.404-50-50s22.404-50 50-50 50 22.404 50 50c0 12.053-4.274 23.116-11.39 31.754l.035-.043c-4.397 5.279-4.607 12.803-.689 18.289z" fill="url(#A)"/><path d="M37 53h44c2.76 0 5-2.24 5-5s-2.24-5-5-5H37c-2.76 0-5 2.24-5 5s2.24 5 5 5z" fill="url(#B)"/><path d="M37 79h17c2.76 0 5-2.24 5-5s-2.24-5-5-5H37c-2.76 0-5 2.24-5 5s2.24 5 5 5z" fill="url(#C)"/></g><defs><linearGradient id="A" x1="18" y1="17" x2="120" y2="119" gradientUnits="userSpaceOnUse"><stop stop-color="#ff0cf5"/><stop offset="1" stop-color="#0575e6"/></linearGradient><linearGradient id="B" x1="37" y1="48" x2="81" y2="48" gradientUnits="userSpaceOnUse"><stop stop-color="#a83afe"/><stop offset="1" stop-color="#6e59fe"/></linearGradient><linearGradient id="C" x1="37" y1="74" x2="54" y2="74" gradientUnits="userSpaceOnUse"><stop stop-color="#a83afe"/><stop offset="1" stop-color="#6e59fe"/></linearGradient></defs></svg>

<svg width="120" height="120" viewBox="0 0 120 120" fill="none" xmlns="http://www.w3.org/2000/svg">
<path fill-rule="evenodd" clip-rule="evenodd" d="M106.328 98.112C104.753 100.003 104.793 102.761 106.422 104.606C108.155 106.587 110.453 109.189 112.662 111.69C113.963 113.164 114.28 115.264 113.472 117.056C112.664 118.848 110.88 120 108.914 120C92.614 120 63.702 120 60 120C26.885 120 0 93.115 0 60C0 26.885 26.885 0 60 0C93.115 0 120 26.885 120 60C120 74.467 114.869 87.745 106.328 98.112ZM97.956 110H60C32.404 110 10 87.596 10 60C10 32.404 32.404 10 60 10C87.596 10 110 32.404 110 60C110 72.053 105.726 83.116 98.61 91.754L98.645 91.711C94.248 96.99 94.038 104.514 97.956 110Z" fill="url(#paint0_linear_5_159)"/>
<path fill-rule="evenodd" clip-rule="evenodd" d="M37 53H81C83.76 53 86 50.76 86 48C86 45.24 83.76 43 81 43H37C34.24 43 32 45.24 32 48C32 50.76 34.24 53 37 53Z" fill="url(#paint1_linear_5_159)"/>
<path fill-rule="evenodd" clip-rule="evenodd" d="M37 79H54C56.76 79 59 76.76 59 74C59 71.24 56.76 69 54 69H37C34.24 69 32 71.24 32 74C32 76.76 34.24 79 37 79Z" fill="url(#paint2_linear_5_159)"/>
<defs>
<linearGradient id="paint0_linear_5_159" x1="18" y1="17" x2="120" y2="119" gradientUnits="userSpaceOnUse">
<stop stop-color="#FF0CF5"/>
<stop offset="1" stop-color="#0575E6"/>
</linearGradient>
<linearGradient id="paint1_linear_5_159" x1="37" y1="48" x2="81" y2="48" gradientUnits="userSpaceOnUse">
<stop stop-color="#A83AFE"/>
<stop offset="1" stop-color="#6E59FE"/>
</linearGradient>
<linearGradient id="paint2_linear_5_159" x1="37" y1="74" x2="54" y2="74" gradientUnits="userSpaceOnUse">
<stop stop-color="#A83AFE"/>
<stop offset="1" stop-color="#6E59FE"/>
</linearGradient>
</defs>
</svg>
